X: 23968
T: Lochiel's Welcome To Glasgow
R: jig
M: 6/8
K: Amixolydian
e|ABA Ace|a2e fec|BcB Bce|fea fec|ABA Ace|a2e fec|efe eca|ABA A2:|
|:e|cee cee|fdf fed|cee cee|ABc cBA|cee cee|fdf fec|efe eca|ABA A2:|

